austria/municipalities/40429.svg

<?xml version="1.0" encoding="UTF-8"?>
<!DOCTYPE svg PUBLIC "-//W3C//DTD SVG 1.1//EN" "http://www.w3.org/Graphics/SVG/1.1/DTD/svg11.dtd">
<svg xmlns="http://www.w3.org/2000/svg" version="1.1" width="166px" height="207px" style="shape-rendering:geometricPrecision; text-rendering:geometricPrecision; image-rendering:optimizeQuality; fill-rule:evenodd; clip-rule:evenodd" xmlns:xlink="http://www.w3.org/1999/xlink">
<g><path style="opacity:1" fill="#000000" d="M -0.5,-0.5 C 54.8333,-0.5 110.167,-0.5 165.5,-0.5C 165.5,43.8333 165.5,88.1667 165.5,132.5C 159.745,165.461 141.411,188.628 110.5,202C 105.336,203.369 100.336,204.869 95.5,206.5C 86.8333,206.5 78.1667,206.5 69.5,206.5C 29.5404,196.538 6.20705,171.205 -0.5,130.5C -0.5,86.8333 -0.5,43.1667 -0.5,-0.5 Z"/></g>
<g><path style="opacity:1" fill="#003266" d="M 3.5,3.5 C 56.1667,3.5 108.833,3.5 161.5,3.5C 161.667,47.8346 161.5,92.1679 161,136.5C 157.745,151.634 151.079,164.967 141,176.5C 139.719,164.719 133.219,158.052 121.5,156.5C 116.691,157.264 112.525,159.264 109,162.5C 105.833,152.667 99.3333,146.167 89.5,143C 88.0652,140.733 88.3985,138.733 90.5,137C 96.8204,135.669 102.487,133.002 107.5,129C 109.032,126.966 110.365,124.799 111.5,122.5C 106.869,121.338 102.202,121.172 97.5,122C 94.5424,122.229 92.0424,123.396 90,125.5C 87.9967,118.894 89.83,113.728 95.5,110C 100.668,106.581 106.002,103.415 111.5,100.5C 111.273,115.055 118.273,119.889 132.5,115C 134.574,112.698 135.908,110.032 136.5,107C 151.342,105.109 155.509,97.2759 149,83.5C 145.436,78.5758 140.77,77.2425 135,79.5C 129.455,66.1489 121.288,64.3155 110.5,74C 104.636,81.2472 105.303,87.7472 112.5,93.5C 103.424,97.1162 95.2575,102.116 88,108.5C 87.33,100.475 86.4967,92.4746 85.5,84.5C 89.0254,84.6541 91.8587,83.3208 94,80.5C 95.3885,75.6278 95.8885,70.6278 95.5,65.5C 107.958,68.3828 114.291,63.3828 114.5,50.5C 113.86,37.6678 107.693,33.6678 96,38.5C 100.202,25.9476 95.5349,18.9476 82,17.5C 72.445,17.8874 67.2783,22.8874 66.5,32.5C 66.7605,34.1871 67.4272,35.6871 68.5,37C 55.0947,33.7287 48.428,39.062 48.5,53C 48.1875,58.4402 49.8542,63.1069 53.5,67C 55.3333,67.1667 57.1667,67.3333 59,67.5C 63.0179,67.0783 66.8512,66.2449 70.5,65C 66.2211,71.0003 66.5545,76.6669 71.5,82C 73.441,83.9028 75.7743,84.7361 78.5,84.5C 78.6664,92.1739 78.4997,99.8406 78,107.5C 69.9911,102.079 61.4911,97.5788 52.5,94C 60.4727,86.4673 60.4727,78.8006 52.5,71C 41.8708,64.4216 34.3708,66.9216 30,78.5C 20.1982,75.4743 14.3649,79.1409 12.5,89.5C 12.2792,95.8829 14.2792,101.383 18.5,106C 21.562,106.741 24.562,106.575 27.5,105.5C 29.2414,115.881 35.2414,119.381 45.5,116C 52.8008,113.464 55.1342,108.464 52.5,101C 62.1698,103.309 69.6698,108.809 75,117.5C 76.3179,120.43 76.9846,123.43 77,126.5C 69.504,121.169 61.3373,120.002 52.5,123C 58.5885,130.422 66.2552,135.422 75.5,138C 76.4061,139.699 76.7394,141.533 76.5,143.5C 71.0272,144.488 66.5272,147.154 63,151.5C 60.9682,154.854 58.9682,158.187 57,161.5C 49.4812,154.623 41.3146,153.79 32.5,159C 27.6702,163.827 24.8369,169.66 24,176.5C 13.0582,164.614 6.39154,150.614 4,134.5C 3.50001,90.8346 3.33334,47.1679 3.5,3.5 Z"/></g>
<g><path style="opacity:1" fill="#fefffe" d="M 79.5,19.5 C 80.9328,25.6107 81.7661,31.944 82,38.5C 82.1694,32.1406 82.6694,25.8072 83.5,19.5C 96.8186,23.4994 99.152,31.166 90.5,42.5C 93.5158,42.7712 96.1825,41.6045 98.5,39C 107.745,37.0682 112.411,40.9015 112.5,50.5C 107.464,50.5878 102.464,51.0878 97.5,52C 102.627,52.1782 107.627,53.0116 112.5,54.5C 111.313,60.8528 107.479,64.1861 101,64.5C 97.7751,63.5919 94.7751,62.2586 92,60.5C 93.3961,66.3421 93.7294,72.3421 93,78.5C 90.3027,81.8705 86.8027,83.2038 82.5,82.5C 82.1667,54.5 81.8333,54.5 81.5,82.5C 75.6402,83.3264 71.8069,80.9931 70,75.5C 70.2446,70.6003 71.4112,65.9336 73.5,61.5C 69.6754,62.074 66.0087,63.2406 62.5,65C 54.1114,66.7881 50.1114,63.2881 50.5,54.5C 70.4562,52.8425 70.4562,51.8425 50.5,51.5C 50.9048,41.5828 55.9048,37.4162 65.5,39C 68.0583,40.6263 70.725,41.6263 73.5,42C 66.8278,34.6772 67.1611,27.6772 74.5,21C 76.3817,20.8019 78.0484,20.3019 79.5,19.5 Z"/></g>
<g><path style="opacity:1" fill="#000000" d="M 80.5,49.5 C 82.337,49.6395 82.6704,50.3061 81.5,51.5C 80.7025,51.0431 80.3691,50.3764 80.5,49.5 Z"/></g>
<g><path style="opacity:1" fill="#fefffe" d="M 40.5,94.5 C 42.0423,95.1408 43.3757,96.1408 44.5,97.5C 41.8333,101.167 39.1667,104.833 36.5,108.5C 36.8333,108.833 37.1667,109.167 37.5,109.5C 40.8437,105.46 44.177,101.46 47.5,97.5C 51.087,100.69 52.2537,104.69 51,109.5C 49.3868,111.777 47.2201,113.277 44.5,114C 32.9874,116.464 28.4874,111.964 31,100.5C 24.8167,106.522 19.8167,105.855 16,98.5C 13.549,92.1533 14.3823,86.3199 18.5,81C 23.9984,78.4027 28.8317,79.2361 33,83.5C 31.3785,73.5547 35.5452,69.0547 45.5,70C 57.5877,74.845 59.5877,82.1783 51.5,92C 50.2068,92.49 48.8734,92.6567 47.5,92.5C 47.5586,86.6217 46.7253,80.955 45,75.5C 44.9696,80.5296 45.4696,85.5296 46.5,90.5C 38.1775,90.0505 29.8441,90.5505 21.5,92C 27.8691,92.6774 34.2024,93.5107 40.5,94.5 Z"/></g>
<g><path style="opacity:1" fill="#fefffe" d="M 128.5,94.5 C 133.884,93.6561 139.218,92.4894 144.5,91C 136.053,90.0496 127.72,90.5496 119.5,92.5C 118.497,72.518 117.497,72.518 116.5,92.5C 110.114,90.9446 107.614,86.9446 109,80.5C 112.042,74.5533 116.875,70.8867 123.5,69.5C 130.154,71.8021 132.987,76.4688 132,83.5C 140.935,77.7492 146.601,80.0825 149,90.5C 151.045,98.7509 147.878,103.418 139.5,104.5C 137.626,104.61 136.126,103.944 135,102.5C 134.089,113.723 128.255,117.223 117.5,113C 112.724,108.354 112.391,103.521 116.5,98.5C 120.485,101.984 124.318,105.651 128,109.5C 128.315,108.092 127.982,106.759 127,105.5C 124.5,103 122,100.5 119.5,98C 122.731,97.1389 125.731,95.9722 128.5,94.5 Z"/></g>
<g><path style="opacity:1" fill="#fefffe" d="M 128.5,94.5 C 113.135,96.4334 99.9688,102.767 89,113.5C 87.4935,119.404 86.8269,125.404 87,131.5C 92.535,124.101 99.7017,121.934 108.5,125C 102.97,129.765 96.6369,132.932 89.5,134.5C 87.0156,136.545 86.0156,139.212 86.5,142.5C 83.8333,142.5 81.1667,142.5 78.5,142.5C 78.7989,140.396 78.4656,138.396 77.5,136.5C 69.7982,134.482 63.1315,130.649 57.5,125C 61.5,124.333 65.5,124.333 69.5,125C 72.7595,126.784 76.0928,128.284 79.5,129.5C 79.4803,123.782 77.9803,118.448 75,113.5C 71.8333,110.333 68.6667,107.167 65.5,104C 60.2293,101.762 55.2293,99.2618 50.5,96.5C 61.5864,99.1286 71.0864,104.462 79,112.5C 80.471,103.334 80.971,94.0007 80.5,84.5C 81.5,84.5 82.5,84.5 83.5,84.5C 84.1698,94.198 85.1698,103.865 86.5,113.5C 98.5502,100.986 113.217,94.153 130.5,93C 129.584,93.2784 128.918,93.7784 128.5,94.5 Z"/></g>
<g><path style="opacity:1" fill="#fefffe" d="M 50.5,96.5 C 47.1667,95.8333 43.8333,95.1667 40.5,94.5C 40.0825,93.7784 39.4158,93.2784 38.5,93C 43.0034,92.6239 47.0034,93.7906 50.5,96.5 Z"/></g>
<g><path style="opacity:1" fill="#000000" d="M 61.5,125.5 C 67.0627,128.023 72.7293,130.356 78.5,132.5C 78.1667,132.833 77.8333,133.167 77.5,133.5C 72.1664,132.254 67.1664,130.254 62.5,127.5C 61.7025,127.043 61.3691,126.376 61.5,125.5 Z"/></g>
<g><path style="opacity:1" fill="#000000" d="M 93.5,129.5 C 95.1209,127.883 97.1209,126.716 99.5,126C 100.833,125.333 102.167,125.333 103.5,126C 100.292,127.47 96.9587,128.637 93.5,129.5 Z"/></g>
<g><path style="opacity:1" fill="#000000" d="M 93.5,129.5 C 92.0837,131.179 90.7503,132.846 89.5,134.5C 87.9719,134.483 87.4719,133.816 88,132.5C 89.4877,130.84 91.321,129.84 93.5,129.5 Z"/></g>
<g><path style="opacity:1" fill="#fefffe" d="M -0.5,130.5 C 6.20705,171.205 29.5404,196.538 69.5,206.5C 46.1667,206.5 22.8333,206.5 -0.5,206.5C -0.5,181.167 -0.5,155.833 -0.5,130.5 Z"/></g>
<g><path style="opacity:1" fill="#fefffe" d="M 165.5,132.5 C 165.5,157.167 165.5,181.833 165.5,206.5C 142.167,206.5 118.833,206.5 95.5,206.5C 100.336,204.869 105.336,203.369 110.5,202C 141.411,188.628 159.745,165.461 165.5,132.5 Z"/></g>
<g><path style="opacity:1" fill="#fe9900" d="M 75.5,144.5 C 92.4355,142.775 103.102,150.109 107.5,166.5C 116.297,156.476 125.463,156.142 135,165.5C 137.877,169.789 138.877,174.456 138,179.5C 118.778,198.573 95.6109,206.073 68.5,202C 53.7787,198.823 40.7787,192.323 29.5,182.5C 25.9374,174.367 27.2707,167.201 33.5,161C 43.353,155.397 51.5196,157.23 58,166.5C 60.3349,156.337 66.1683,149.004 75.5,144.5 Z"/></g>
</svg>

<svg xmlns="http://www.w3.org/2000/svg" width="166" height="207" style="shape-rendering:geometricPrecision;text-rendering:geometricPrecision;image-rendering:optimizeQuality;fill-rule:evenodd;clip-rule:evenodd"><path style="opacity:1" d="M-.5-.5h166v133c-5.755 32.961-24.089 56.128-55 69.5a236.853 236.853 0 0 0-15 4.5h-26c-39.96-9.962-63.293-35.295-70-76V-.5z"/><path style="opacity:1" fill="#003266" d="M3.5 3.5h158c.167 44.335 0 88.668-.5 133-3.255 15.134-9.921 28.467-20 40-1.281-11.781-7.781-18.448-19.5-20-4.809.764-8.975 2.764-12.5 6-3.167-9.833-9.667-16.333-19.5-19.5-1.435-2.267-1.102-4.267 1-6 6.32-1.331 11.987-3.998 17-8a40.796 40.796 0 0 0 4-6.5 33.225 33.225 0 0 0-14-.5c-2.958.229-5.458 1.396-7.5 3.5-2.003-6.606-.17-11.772 5.5-15.5a191.884 191.884 0 0 1 16-9.5c-.227 14.555 6.773 19.389 21 14.5 2.074-2.302 3.408-4.968 4-8 14.842-1.891 19.009-9.724 12.5-23.5-3.564-4.924-8.23-6.257-14-4-5.545-13.351-13.712-15.184-24.5-5.5-5.864 7.247-5.197 13.747 2 19.5-9.076 3.616-17.243 8.616-24.5 15a587.902 587.902 0 0 0-2.5-24c3.525.154 6.359-1.18 8.5-4 1.388-4.872 1.888-9.872 1.5-15 12.458 2.883 18.791-2.117 19-15-.64-12.832-6.807-16.832-18.5-12 4.202-12.552-.465-19.552-14-21-9.555.387-14.722 5.387-15.5 15a9.207 9.207 0 0 0 2 4.5c-13.405-3.271-20.072 2.062-20 16-.313 5.44 1.354 10.107 5 14l5.5.5c4.018-.422 7.851-1.255 11.5-2.5-4.279 6-3.945 11.667 1 17 1.941 1.903 4.274 2.736 7 2.5.166 7.674 0 15.34-.5 23A133.315 133.315 0 0 0 52.5 94c7.973-7.533 7.973-15.2 0-23-10.63-6.578-18.13-4.078-22.5 7.5-9.802-3.026-15.635.64-17.5 11-.22 6.383 1.78 11.883 6 16.5 3.062.741 6.062.575 9-.5 1.741 10.381 7.741 13.881 18 10.5 7.3-2.536 9.634-7.536 7-15 9.67 2.309 17.17 7.809 22.5 16.5 1.318 2.93 1.985 5.93 2 9-7.496-5.331-15.663-6.498-24.5-3.5 6.089 7.422 13.755 12.422 23 15 .906 1.699 1.24 3.533 1 5.5-5.473.988-9.973 3.654-13.5 8a1355.552 1355.552 0 0 0-6 10c-7.519-6.877-15.685-7.71-24.5-2.5-4.83 4.827-7.663 10.66-8.5 17.5-10.942-11.886-17.608-25.886-20-42-.5-43.665-.667-87.332-.5-131z"/><path style="opacity:1" fill="#fefffe" d="M79.5 19.5c1.433 6.11 2.266 12.444 2.5 19 .17-6.36.67-12.693 1.5-19 13.319 4 15.652 11.666 7 23 3.016.271 5.683-.895 8-3.5 9.245-1.932 13.911 1.901 14 11.5a91.699 91.699 0 0 0-15 1.5 58.028 58.028 0 0 1 15 2.5c-1.187 6.353-5.021 9.686-11.5 10a33.864 33.864 0 0 1-9-4c1.396 5.842 1.73 11.842 1 18-2.697 3.37-6.197 4.704-10.5 4-.333-28-.667-28-1 0-5.86.826-9.693-1.507-11.5-7a36.85 36.85 0 0 1 3.5-14 36.476 36.476 0 0 0-11 3.5c-8.389 1.788-12.389-1.712-12-10.5 19.956-1.657 19.956-2.657 0-3 .405-9.917 5.405-14.084 15-12.5 2.558 1.626 5.225 2.626 8 3-6.672-7.323-6.339-14.323 1-21 1.882-.198 3.548-.698 5-1.5z"/><path style="opacity:1" d="M80.5 49.5c1.837.14 2.17.806 1 2-.797-.457-1.13-1.124-1-2z"/><path style="opacity:1" fill="#fefffe" d="M40.5 94.5c1.542.64 2.876 1.64 4 3l-8 11 1 1c3.344-4.04 6.677-8.04 10-12 3.587 3.19 4.754 7.19 3.5 12-1.613 2.277-3.78 3.777-6.5 4.5-11.513 2.464-16.013-2.036-13.5-13.5-6.183 6.022-11.183 5.355-15-2-2.451-6.347-1.618-12.18 2.5-17.5 5.498-2.597 10.332-1.764 14.5 2.5-1.622-9.945 2.545-14.445 12.5-13.5 12.088 4.845 14.088 12.178 6 22a8.434 8.434 0 0 1-4 .5c.059-5.878-.775-11.545-2.5-17-.03 5.03.47 10.03 1.5 15-8.322-.45-16.656.05-25 1.5 6.37.677 12.702 1.51 19 2.5zM128.5 94.5a137.183 137.183 0 0 0 16-3.5c-8.447-.95-16.78-.45-25 1.5-1.003-19.982-2.003-19.982-3 0-6.386-1.555-8.886-5.555-7.5-12 3.042-5.947 7.875-9.613 14.5-11 6.654 2.302 9.487 6.969 8.5 14 8.935-5.75 14.601-3.418 17 7 2.045 8.25-1.122 12.918-9.5 14-1.874.11-3.374-.556-4.5-2-.911 11.223-6.745 14.723-17.5 10.5-4.776-4.646-5.109-9.479-1-14.5a178.482 178.482 0 0 1 11.5 11c.315-1.408-.018-2.741-1-4l-7.5-7.5c3.231-.861 6.231-2.028 9-3.5z"/><path style="opacity:1" fill="#fefffe" d="M128.5 94.5c-15.365 1.933-28.531 8.267-39.5 19a64.991 64.991 0 0 0-2 18c5.535-7.399 12.702-9.566 21.5-6.5-5.53 4.765-11.863 7.932-19 9.5-2.484 2.045-3.484 4.712-3 8h-8a9.864 9.864 0 0 0-1-6c-7.702-2.018-14.368-5.851-20-11.5 4-.667 8-.667 12 0a69.384 69.384 0 0 0 10 4.5c-.02-5.718-1.52-11.052-4.5-16l-9.5-9.5a132.043 132.043 0 0 1-15-7.5c11.086 2.629 20.586 7.962 28.5 16 1.471-9.166 1.971-18.5 1.5-28h3c.67 9.698 1.67 19.365 3 29 12.05-12.514 26.717-19.347 44-20.5-.916.278-1.582.778-2 1.5zM50.5 96.5l-10-2c-.417-.722-1.084-1.222-2-1.5 4.503-.376 8.503.79 12 3.5z"/><path style="opacity:1" d="M61.5 125.5a262.31 262.31 0 0 0 17 7l-1 1a53.102 53.102 0 0 1-15-6c-.797-.457-1.13-1.124-1-2zM93.5 129.5c1.62-1.617 3.62-2.784 6-3.5 1.333-.667 2.667-.667 4 0a57.183 57.183 0 0 1-10 3.5zM93.5 129.5a119.872 119.872 0 0 0-4 5c-1.528-.017-2.028-.684-1.5-2 1.488-1.66 3.321-2.66 5.5-3z"/><path style="opacity:1" fill="#fefffe" d="M-.5 130.5c6.707 40.705 30.04 66.038 70 76h-70v-76zM165.5 132.5v74h-70a236.853 236.853 0 0 1 15-4.5c30.911-13.372 49.245-36.539 55-69.5z"/><path style="opacity:1" fill="#fe9900" d="M75.5 144.5c16.936-1.725 27.602 5.609 32 22 8.797-10.024 17.963-10.358 27.5-1 2.877 4.289 3.877 8.956 3 14-19.222 19.073-42.39 26.573-69.5 22.5-14.721-3.177-27.721-9.677-39-19.5-3.563-8.133-2.23-15.299 4-21.5 9.853-5.603 18.02-3.77 24.5 5.5 2.335-10.163 8.168-17.496 17.5-22z"/></svg>
